X:1
T:Xia
T:peça per a piano composta pel 18è aniversari de l'Alba Xia Escalona 
T:Jordi Hortal
%%score { 1 2 }
L:1/8
Q:1/4=80
M:4/4
K:Eb
V:1 treble nm="Piano de cua"
V:2 bass nm="Piano"
V:1
 z8 | z4 z2!mf! [G,E][A,F] | ([B,G]4 [G,E]2 [B,G]2 | ([DB][Ec][DB][CA]) [B,G]4) | %4
!<(! ([A,F]2 [G,E][F,D] [G,E]2 [A,F][B,G]!<)! |!>(! [CA]2 [B,G]2 [DF]4)!>)! | %6
!mf! ([B,G]4 [G,E]2 [B,G]2 | ([DB][Ec][DB][CA]) [B,G]4) | %8
!<(! ([CA]2 [CA][B,G] [A,F]2) [=A,E]2!<)! |!>(! [B,E]4 [_A,D]3 E!>)! |!mf! [G,E]6 z2 | %11
 z4 z2 [B,G]2 | ([DB]3 [CA] [CA] [B,G]2 [A,F] | [G,E]6) [Ge]2 |!<(! ([Fd] [Ge]2 [Af]2 [Bg]2 [ca] | %15
 [db][Bf][Bf][Fd] [Fd][DB][DB][DA]!<)! |!>(! [DA]4 [B,G]3)!>)!!mf! G | %17
!<(! ([B,G]2 [G,=E][A,F] [B,G]2 [=Ec][_DB]!<)! | [_DB]4 [CA]4) | %19
 (([CA][B,G][A,F][B,G]) [CA]2 [B,G][A,F] | [G,=E]6) z [B,G] |!<(! ([CA]2 [Fc]2 [Af]3 [Ae] | %22
 [G_d]2 ([Gd][Ec]) [Gd]2 ([Gd][Ge])!<)! |!>(! [B_d]4 [Ac]3)!>)!!mf! [Ac] | %24
!<(! ([=Ac]2 [Af]4 [Ae]2 | [Fd][DB][DB][B,F] [B,F][F,D][D,B,][D,A,]!<)! | [E,G,]2) ([G,E]4 [A,F]2 | %27
 [B,G]4 [G,E]4) | [EG]2 ([Bg]4 [ca]2 | [db]4 [Bg]4) | ([Af]2 [Ac]4 [Ae]2 |!>(! [Be]4 [Ad]3 e | %32
 [Ge]6)!>)!!mf! [G,E][A,F] | [B,G]2!mp! ([Ge][Af] [Bg]2)!mf! [B,G]2 | %34
 ([DB][Ec][DB][CA] [B,G]2)!mp! !arpeggio![Beg]2 |!mf! ([A,F]2 [G,E][F,D] [G,E]2 [A,F][B,G] | %36
 [CA]2 [B,G]2 [DF]2)!mp! !arpeggio![Bdf]2 |!mf! ([B,G]4 [G,E]2 [B,G]2 | %38
 ([DB][Ec][DB][CA]) [B,G]2)!mp! ([Beg][GBe]) |!mf! ([CA]2 [CA][B,G] [A,F]2) [=A,E]2 | %40
!>(! [B,E]4 [_A,D]3 E!>)! | [G,E]6[Q:1/4=75] z2 | %42
!mp!"^més lent"[Q:1/4=70] ([CA]2 [CA][B,G] [A,F]2) [=A,E]2 |[Q:1/4=65] [B,E]4[Q:1/4=60] [A,D]3 E | %44
 [_G,E]6 z2[Q:1/4=55] |[Q:1/4=50] !fermata!z2 [_ce]2[Q:1/4=45] [e_g]2 [eg_c']2 | [e=gb]8- | %47
 [egb]2 z2!pp! [Beg]2 z2 | [G,B,E]8 |] %49
V:2
!mf!!ped! (E,,!>(!B,,E,B,, E,,B,,E,B,,)!ped-up! |!ped! (E,,B,,E,B,, E,,!>)!B,,!mp!E,B,,)!ped-up! | %2
!ped! E,,B,,E,B,, E,,B,,E,B,,!ped-up! |!ped! E,,B,,E,B,, E,,B,,E,B,,!ped-up! | %4
!ped! B,,,F,,B,,F,, B,,,F,,B,,F,,!ped-up! |!ped! B,,,F,,B,,F,, B,,,F,,B,,F,,!ped-up! | %6
!ped! E,,B,,E,B,, E,,B,,E,B,,!ped-up! |!ped! E,,B,,E,B,, E,,B,,E,B,,!ped-up! | %8
!ped! F,,C,F,C, F,,C,F,C,!ped-up! |!ped! B,,,F,,B,,F,, B,,,F,,B,,F,,!ped-up! | %10
!ped! E,,B,,E,B,, E,,B,,E,B,,!ped-up! |!ped! E,,B,,E,B,, E,,B,,E,B,,!ped-up! | %12
!ped! E,,B,,E,B,, E,,B,,E,B,,!ped-up! |!ped! E,,B,,E,B,, E,,B,,E,B,,!ped-up! | %14
!ped! B,,,F,,B,,F,, B,,,F,,B,,F,,!ped-up! |!ped! B,,,F,,B,,F,, B,,,F,,B,,F,,!ped-up! | %16
!ped! E,,B,,E,B,, E,,B,,E,B,,!ped-up! |!ped! C,,G,,C,G,, C,,G,,C,G,,!ped-up! | %18
!ped! F,,C,F,C, F,,C,F,C,!ped-up! |!ped! _D,,A,,_D,A,, D,,A,,D,A,,!ped-up! | %20
!ped! C,,G,,C,G,, C,,G,,C,G,,!ped-up! |!ped! F,,C,F,C, F,,C,F,C,!ped-up! | %22
!ped! E,,B,,E,B,, E,,B,,E,B,,!ped-up! |!ped! A,,E,A,E, A,,E,A,E,!ped-up! | %24
!ped! F,,C,F,C, F,,C,F,C,!ped-up! |!ped! B,,,F,,B,,F,, B,,,F,,B,,F,,!ped-up! | %26
!ped! E,,B,,E,B,, E,,B,,E,B,,!ped-up! |!ped! E,,B,,E,B,, E,,B,,E,B,,!ped-up! | %28
!ped! E,,B,,E,B,, E,,B,,E,B,,!ped-up! |!ped! E,,B,,E,B,, E,,B,,E,B,,!ped-up! | %30
!ped! F,,C,F,C, F,,C,F,C,!ped-up! |!ped! B,,,F,,B,,F,, B,,,F,,B,,F,,!ped-up! | %32
!ped! E,,B,,E,B,, E,,B,,E,B,,!ped-up! |!ped! E,,B,,E,B,, E,,B,,E,B,,!ped-up! | %34
!ped! E,,B,,E,B,, E,,B,,E,B,,!ped-up! |!ped! B,,,F,,B,,F,, B,,,F,,B,,F,,!ped-up! | %36
!ped! B,,,F,,B,,F,, B,,,F,,B,,F,,!ped-up! |!ped! E,,B,,E,B,, E,,B,,E,B,,!ped-up! | %38
!ped! E,,B,,E,B,, E,,B,,E,B,,!ped-up! |!ped! F,,C,F,C, F,,C,F,C,!ped-up! | %40
!ped! B,,,F,,B,,F,, B,,,F,,B,,F,,!ped-up! |!ped! E,,B,,E,B,, E,,B,,=E,,C,!ped-up! | %42
!ped! F,,C,F,C, F,,C,F,C,!ped-up! |!ped! B,,,F,,B,,F,, B,,,F,,B,,F,,!ped-up! | %44
!ped! _C,,_G,,_C,G,, C,,G,,C,G,,!ped-up! |!ped! !fermata!_C,,2!>(! _C2 E2 _G2!ped-up! | %46
 =G!>)!!p!!ped! [B,,,B,,][E,,E,][G,,G,] [B,,B,][E,,E,][G,,G,][B,,B,]!ped-up! | %47
 [E,E]2 z2!pp! [E,,E,]2 z2 | [E,,,E,,]8 |] %49

